packages/components/src/components/icon/rebranding/ic-rebranding-deriv-bot.svg

<svg viewBox="0 0 345 72" fill="none" xmlns="http://www.w3.org/2000/svg"><path d="M0 13.5C0 6.04416 6.04416 0 13.5 0H58.5C65.9558 0 72 6.04416 72 13.5V58.5C72 65.9558 65.9558 72 58.5 72H13.5C6.04416 72 0 65.9558 0 58.5V13.5Z" fill="#FF444F"/><path d="M13.5 0C6.04416 0 0 6.04416 0 13.5V13.8921L67.3075 3.26845C64.9433 1.2315 61.8655 0 58.5 0H13.5Z" fill="#E12E3A"/><path d="M68.6969 4.65243L56.3498 71.9999L58.5 72C65.9558 72 72 65.9558 72 58.5V13.5C72 10.1155 70.7545 7.02183 68.6969 4.65243Z" fill="#E12E3A"/><path d="M21.6298 42.8598C21.8608 42.8808 22.1233 42.9018 22.4173 42.9228C22.7323 42.9228 23.0998 42.9228 23.5198 42.9228C25.9768 42.9228 27.7933 42.3033 28.9693 41.0643C30.1663 39.8253 30.7648 38.1138 30.7648 35.9298C30.7648 33.6408 30.1978 31.9083 29.0638 30.7323C27.9298 29.5563 26.1343 28.9683 23.6773 28.9683C23.3413 28.9683 22.9948 28.9788 22.6378 28.9998C22.2808 28.9998 21.9448 29.0208 21.6298 29.0628V42.8598ZM35.8363 35.9298C35.8363 37.8198 35.5423 39.4683 34.9543 40.8753C34.3663 42.2823 33.5263 43.4478 32.4343 44.3718C31.3633 45.2958 30.0508 45.9888 28.4968 46.4508C26.9428 46.9128 25.1998 47.1438 23.2678 47.1438C22.3858 47.1438 21.3568 47.1018 20.1808 47.0178C19.0048 46.9548 17.8498 46.8078 16.7158 46.5768V25.3143C17.8498 25.1043 19.0258 24.9678 20.2438 24.9048C21.4828 24.8208 22.5433 24.7788 23.4253 24.7788C25.2943 24.7788 26.9848 24.9888 28.4968 25.4088C30.0298 25.8288 31.3423 26.4903 32.4343 27.3933C33.5263 28.2963 34.3663 29.4513 34.9543 30.8583C35.5423 32.2653 35.8363 33.9558 35.8363 35.9298Z" fill="#fff"/><path d="M45.6424 47.1438C44.4454 47.1438 43.2484 47.1018 42.0514 47.0178C40.8754 46.9548 39.6469 46.7868 38.3659 46.5138V25.3458C39.3739 25.1568 40.4764 25.0203 41.6734 24.9363C42.8704 24.8313 43.9834 24.7788 45.0124 24.7788C46.3984 24.7788 47.6689 24.8838 48.8239 25.0938C49.9999 25.2828 51.0079 25.6188 51.8479 26.1018C52.6879 26.5848 53.3389 27.2253 53.8009 28.0233C54.2839 28.8003 54.5254 29.7663 54.5254 30.9213C54.5254 32.6643 53.6854 34.0398 52.0054 35.0478C53.3914 35.5728 54.3364 36.2868 54.8404 37.1898C55.3444 38.0928 55.5964 39.1113 55.5964 40.2453C55.5964 42.5343 54.7564 44.2563 53.0764 45.4113C51.4174 46.5663 48.9394 47.1438 45.6424 47.1438ZM43.1539 37.3473V42.9858C43.5109 43.0278 43.8994 43.0593 44.3194 43.0803C44.7394 43.1013 45.2014 43.1118 45.7054 43.1118C47.1754 43.1118 48.3619 42.9018 49.2649 42.4818C50.1679 42.0618 50.6194 41.2848 50.6194 40.1508C50.6194 39.1428 50.2414 38.4288 49.4854 38.0088C48.7294 37.5678 47.6479 37.3473 46.2409 37.3473H43.1539ZM43.1539 33.5988H45.5479C47.0599 33.5988 48.1414 33.4098 48.7924 33.0318C49.4434 32.6328 49.7689 32.0028 49.7689 31.1418C49.7689 30.2598 49.4329 29.6403 48.7609 29.2833C48.0889 28.9263 47.1019 28.7478 45.7999 28.7478C45.3799 28.7478 44.9284 28.7583 44.4454 28.7793C43.9624 28.7793 43.5319 28.8003 43.1539 28.8423V33.5988Z" fill="#fff"/><path fill-rule="evenodd" clip-rule="evenodd" d="M108.739 19.1622L106.967 29.2131H100.815C95.0752 29.2131 89.6045 33.8632 88.5905 39.6027L88.1614 42.0457C87.1521 47.7853 90.9816 52.4355 96.7211 52.4355H101.852C106.035 52.4355 110.02 49.0492 110.756 44.8661L115.482 18.0783L108.739 19.1622ZM104.374 43.9181C104.147 45.2103 102.984 46.2621 101.692 46.2621H98.5745C95.9948 46.2621 94.2687 44.1679 94.7214 41.5835L94.9903 40.0602C95.4477 37.4805 97.9095 35.3818 100.489 35.3818H105.879L104.374 43.9181Z" fill="currentColor"/><path d="M156.118 52.4371H162.503L166.54 29.5354H160.155L156.118 52.4371Z" fill="currentColor"/><path d="M156.331 32.521L156.331 32.5157C156.491 31.6102 156.651 30.7047 156.811 29.7992C150.259 28.1109 145.155 29.8576 143.077 30.7182C143.077 30.7182 140.112 47.5221 139.245 52.4425H145.634C146.671 46.5619 147.708 40.6799 148.744 34.7993C149.703 34.6081 152.824 34.3087 155.849 35.2488C156.009 34.3395 156.17 33.4302 156.331 32.521Z" fill="currentColor"/><path fill-rule="evenodd" clip-rule="evenodd" d="M130.914 29.2107H125.948C121.104 29.2107 116.487 33.1346 115.634 37.978L114.629 43.6704C113.776 48.5139 117.006 52.4378 121.85 52.4378H132.423L133.508 46.2832H123.571C121.958 46.2832 120.878 44.9768 121.166 43.3592L121.199 43.1658H137.219L138.134 37.978C138.988 33.1346 135.757 29.2107 130.914 29.2107ZM131.725 37.4876L131.687 37.8177H122.161L122.213 37.5253C122.5 35.9124 123.972 34.4928 125.589 34.4928H129.31C130.909 34.4928 131.989 35.8888 131.725 37.4876Z" fill="currentColor"/><path d="M177.639 44.6411C180.538 39.4249 183.734 32.5813 185.066 29.5354H191.461C189.284 35.3229 184.296 45.1678 179.463 52.4371H173.073C170.855 45.5185 169.423 35.8786 169.149 29.5354H175.54C175.655 31.6045 176.581 39.2794 177.639 44.6411Z" fill="currentColor"/><path d="M210.694 53.6855C208.898 53.6855 207.103 53.6225 205.307 53.4965C203.543 53.402 201.701 53.15 199.779 52.7405V20.9884C201.291 20.7049 202.945 20.5002 204.74 20.3742C206.536 20.2167 208.205 20.1379 209.749 20.1379C211.828 20.1379 213.734 20.2954 215.466 20.6104C217.23 20.8939 218.742 21.3979 220.002 22.1224C221.262 22.8469 222.239 23.8077 222.932 25.0047C223.656 26.1702 224.018 27.6192 224.018 29.3517C224.018 31.9662 222.758 34.0295 220.238 35.5415C222.317 36.329 223.735 37.4 224.491 38.7545C225.247 40.109 225.625 41.6367 225.625 43.3377C225.625 46.7712 224.365 49.3542 221.845 51.0867C219.356 52.8192 215.639 53.6855 210.694 53.6855ZM206.961 38.9907V47.4485C207.497 47.5115 208.079 47.5587 208.709 47.5902C209.339 47.6217 210.032 47.6375 210.788 47.6375C212.993 47.6375 214.773 47.3225 216.128 46.6925C217.482 46.0625 218.159 44.897 218.159 43.196C218.159 41.684 217.592 40.613 216.458 39.983C215.324 39.3215 213.702 38.9907 211.592 38.9907H206.961ZM206.961 33.368H210.552C212.82 33.368 214.442 33.0845 215.419 32.5175C216.395 31.919 216.884 30.974 216.884 29.6825C216.884 28.3595 216.38 27.4302 215.372 26.8947C214.364 26.3592 212.883 26.0914 210.93 26.0914C210.3 26.0914 209.623 26.1072 208.898 26.1387C208.174 26.1387 207.528 26.1702 206.961 26.2332V33.368Z" fill="currentColor"/><path d="M251.937 40.7862C251.937 42.7392 251.654 44.5347 251.087 46.1727C250.52 47.7792 249.701 49.1652 248.63 50.3307C247.559 51.4647 246.267 52.3467 244.755 52.9767C243.275 53.6067 241.605 53.9217 239.747 53.9217C237.92 53.9217 236.25 53.6067 234.738 52.9767C233.258 52.3467 231.982 51.4647 230.911 50.3307C229.84 49.1652 229.005 47.7792 228.407 46.1727C227.808 44.5347 227.509 42.7392 227.509 40.7862C227.509 38.8332 227.808 37.0535 228.407 35.447C229.037 33.8405 229.887 32.4702 230.958 31.3362C232.061 30.2022 233.352 29.3202 234.833 28.6902C236.345 28.0602 237.983 27.7452 239.747 27.7452C241.542 27.7452 243.18 28.0602 244.661 28.6902C246.173 29.3202 247.464 30.2022 248.535 31.3362C249.606 32.4702 250.441 33.8405 251.039 35.447C251.638 37.0535 251.937 38.8332 251.937 40.7862ZM244.755 40.7862C244.755 38.6127 244.314 36.9117 243.432 35.6832C242.582 34.4232 241.353 33.7932 239.747 33.7932C238.14 33.7932 236.896 34.4232 236.014 35.6832C235.132 36.9117 234.691 38.6127 234.691 40.7862C234.691 42.9597 235.132 44.6922 236.014 45.9837C236.896 47.2437 238.14 47.8737 239.747 47.8737C241.353 47.8737 242.582 47.2437 243.432 45.9837C244.314 44.6922 244.755 42.9597 244.755 40.7862Z" fill="currentColor"/><path d="M254.792 22.2169L261.832 21.0829V28.4067H270.29V34.2657H261.832V43.007C261.832 44.4875 262.084 45.6687 262.588 46.5507C263.124 47.4327 264.179 47.8737 265.754 47.8737C266.51 47.8737 267.282 47.8107 268.069 47.6847C268.888 47.5272 269.629 47.3225 270.29 47.0705L271.282 52.5515C270.432 52.898 269.487 53.1972 268.447 53.4492C267.408 53.7012 266.132 53.8272 264.62 53.8272C262.699 53.8272 261.108 53.5752 259.848 53.0712C258.588 52.5357 257.58 51.8112 256.824 50.8977C256.068 49.9527 255.532 48.8187 255.217 47.4957C254.934 46.1727 254.792 44.708 254.792 43.1015V22.2169Z" fill="currentColor"/></svg>

<svg xmlns="http://www.w3.org/2000/svg" fill="none" viewBox="0 0 345 72"><path fill="#FF444F" d="M0 13.5C0 6.044 6.044 0 13.5 0h45C65.956 0 72 6.044 72 13.5v45C72 65.956 65.956 72 58.5 72h-45C6.044 72 0 65.956 0 58.5v-45Z"/><path fill="#E12E3A" d="M13.5 0C6.044 0 0 6.044 0 13.5v.392L67.308 3.268A13.447 13.447 0 0 0 58.5 0h-45ZM68.697 4.652 56.35 72h2.15C65.956 72 72 65.956 72 58.5v-45c0-3.384-1.246-6.478-3.303-8.848Z"/><path fill="#fff" d="M21.63 42.86c.23.02.493.042.787.063h1.103c2.457 0 4.273-.62 5.45-1.859 1.196-1.239 1.795-2.95 1.795-5.134 0-2.29-.567-4.022-1.701-5.198-1.134-1.176-2.93-1.764-5.387-1.764-.336 0-.682.01-1.04.032-.356 0-.692.02-1.007.063V42.86Zm14.206-6.93c0 1.89-.294 3.538-.882 4.945-.588 1.407-1.428 2.573-2.52 3.497-1.07.924-2.383 1.617-3.937 2.079-1.554.462-3.297.693-5.23.693-.881 0-1.91-.042-3.086-.126a23.682 23.682 0 0 1-3.465-.441V25.314c1.134-.21 2.31-.346 3.528-.41 1.239-.083 2.3-.125 3.181-.125 1.87 0 3.56.21 5.072.63 1.533.42 2.845 1.081 3.937 1.984 1.092.903 1.932 2.058 2.52 3.465.588 1.407.882 3.098.882 5.072ZM45.642 47.144c-1.197 0-2.394-.042-3.59-.126a23.814 23.814 0 0 1-3.686-.504V25.346a29.034 29.034 0 0 1 3.307-.41 38.371 38.371 0 0 1 3.34-.157c1.385 0 2.656.105 3.81.315 1.177.189 2.185.525 3.025 1.008a5.201 5.201 0 0 1 1.953 1.921c.483.777.724 1.743.724 2.898 0 1.743-.84 3.119-2.52 4.127 1.386.525 2.331 1.239 2.835 2.142.504.903.756 1.921.756 3.055 0 2.29-.84 4.011-2.52 5.166-1.659 1.155-4.137 1.733-7.434 1.733Zm-2.488-9.797v5.639c.357.042.745.073 1.165.094.42.021.882.032 1.386.032 1.47 0 2.657-.21 3.56-.63.903-.42 1.354-1.197 1.354-2.331 0-1.008-.378-1.722-1.134-2.142-.756-.441-1.837-.662-3.244-.662h-3.087Zm0-3.748h2.394c1.512 0 2.593-.19 3.244-.567.651-.4.977-1.03.977-1.89 0-.882-.336-1.502-1.008-1.859-.672-.357-1.66-.535-2.961-.535-.42 0-.872.01-1.355.031-.483 0-.913.021-1.291.063V33.6Z"/><path fill="var(--text-general)" fill-rule="evenodd" d="m108.739 19.162-1.772 10.051h-6.152c-5.74 0-11.21 4.65-12.224 10.39l-.43 2.443c-1.009 5.74 2.82 10.39 8.56 10.39h5.131c4.183 0 8.168-3.387 8.904-7.57l4.726-26.788-6.743 1.084Zm-4.365 24.756c-.227 1.292-1.39 2.344-2.682 2.344h-3.117c-2.58 0-4.306-2.094-3.854-4.678l.27-1.524c.457-2.58 2.918-4.678 5.498-4.678h5.39l-1.505 8.536Z" clip-rule="evenodd"/><path fill="var(--text-general)" d="M156.118 52.437h6.385l4.037-22.902h-6.385l-4.037 22.902ZM156.331 32.521v-.005l.48-2.717c-6.552-1.688-11.656.059-13.734.92 0 0-2.965 16.803-3.832 21.724h6.389l3.11-17.644c.959-.19 4.08-.49 7.105.45l.482-2.728Z"/><path fill="var(--text-general)" fill-rule="evenodd" d="M130.914 29.21h-4.966c-4.844 0-9.461 3.925-10.314 8.768l-1.005 5.692c-.853 4.844 2.377 8.768 7.221 8.768h10.573l1.085-6.155h-9.937c-1.613 0-2.693-1.306-2.405-2.924l.033-.193h16.02l.915-5.188c.854-4.843-2.377-8.767-7.22-8.767Zm.811 8.278-.038.33h-9.526l.052-.293c.287-1.613 1.759-3.032 3.376-3.032h3.721c1.599 0 2.679 1.396 2.415 2.995Z" clip-rule="evenodd"/><path fill="var(--text-general)" d="M177.639 44.641c2.899-5.216 6.095-12.06 7.427-15.106h6.395c-2.177 5.788-7.165 15.633-11.998 22.902h-6.39c-2.218-6.918-3.65-16.558-3.924-22.902h6.391c.115 2.07 1.041 9.744 2.099 15.106ZM210.694 53.685c-1.796 0-3.591-.063-5.387-.189a35.726 35.726 0 0 1-5.528-.756V20.988a43.561 43.561 0 0 1 4.961-.614 57.569 57.569 0 0 1 5.009-.236c2.079 0 3.985.157 5.717.472 1.764.284 3.276.788 4.536 1.512 1.26.725 2.237 1.686 2.93 2.883.724 1.165 1.086 2.614 1.086 4.347 0 2.614-1.26 4.677-3.78 6.19 2.079.787 3.497 1.858 4.253 3.212.756 1.355 1.134 2.883 1.134 4.584 0 3.433-1.26 6.016-3.78 7.749-2.489 1.732-6.206 2.598-11.151 2.598Zm-3.733-14.694v8.458c.536.063 1.118.11 1.748.141.63.032 1.323.047 2.079.047 2.205 0 3.985-.315 5.34-.944 1.354-.63 2.031-1.796 2.031-3.497 0-1.512-.567-2.583-1.701-3.213-1.134-.661-2.756-.992-4.866-.992h-4.631Zm0-5.623h3.591c2.268 0 3.89-.284 4.867-.85.976-.599 1.465-1.544 1.465-2.835 0-1.323-.504-2.253-1.512-2.788-1.008-.536-2.489-.804-4.442-.804-.63 0-1.307.016-2.032.048-.724 0-1.37.031-1.937.094v7.135ZM251.937 40.786c0 1.953-.283 3.749-.85 5.387-.567 1.606-1.386 2.992-2.457 4.158-1.071 1.134-2.363 2.016-3.875 2.646-1.48.63-3.15.945-5.008.945-1.827 0-3.497-.315-5.009-.945a11.27 11.27 0 0 1-3.827-2.646c-1.071-1.166-1.906-2.552-2.504-4.158-.599-1.638-.898-3.434-.898-5.387 0-1.953.299-3.733.898-5.339.63-1.607 1.48-2.977 2.551-4.11a11.778 11.778 0 0 1 3.875-2.647c1.512-.63 3.15-.945 4.914-.945 1.795 0 3.433.315 4.914.945 1.512.63 2.803 1.512 3.874 2.646 1.071 1.134 1.906 2.505 2.504 4.111.599 1.606.898 3.386.898 5.34Zm-7.182 0c0-2.173-.441-3.874-1.323-5.103-.85-1.26-2.079-1.89-3.685-1.89-1.607 0-2.851.63-3.733 1.89-.882 1.229-1.323 2.93-1.323 5.103 0 2.174.441 3.906 1.323 5.198.882 1.26 2.126 1.89 3.733 1.89 1.606 0 2.835-.63 3.685-1.89.882-1.292 1.323-3.024 1.323-5.198ZM254.792 22.217l7.04-1.134v7.324h8.458v5.859h-8.458v8.741c0 1.48.252 2.662.756 3.544.536.882 1.591 1.323 3.166 1.323.756 0 1.528-.063 2.315-.19.819-.157 1.56-.361 2.221-.613l.992 5.48a19.99 19.99 0 0 1-2.835.898c-1.039.252-2.315.378-3.827.378-1.921 0-3.512-.252-4.772-.756-1.26-.535-2.268-1.26-3.024-2.173-.756-.945-1.292-2.08-1.607-3.402-.283-1.323-.425-2.788-.425-4.395V22.218Z"/></svg>
